X:1
T:Lisnagun
L:1/8
Q:1/4=160
M:6/8
K:D
"G""^Lisnagun" GED G3 |"G" ABd B3 |"C" ABd BAG |"D" AGE GED |
"G" GED G3 |"G" ABd B3 |"C" ABd BAG |"D" AGE"G" G3 ::
"G" d3 BAG |"Em" ABd B3 |"C" ABd BAG |"D" AGE GED |1
"G" d3 BAG |"Em" ABd B3 |"C" ABd BAG |"D" AGE"G" G3 :|2
"G" GED G3 |"G" ABd B3 |"C" ABd BAG |"D" AGE"G" G3 |]
